X: 10402
T: LORD MORIA'S RETURN FROM SCOTLAND
C:
%R: strathspey, march, reel
B: Elias Howe "The Musician's Companion" Part 1 1842 p.40 #2
S: http://imslp.org/wiki/The_Musician's_Companion_(Howe,_Elias)
Z: 2015 John Chambers <jc:trillian.mit.edu>
M: C
L: 1/8
K: F
% - - - - - - - - - - - - - - - - - - - - - - - - -
|:\
FF/F/ F2 A<cc2 | B>G A>F EGEC |\
FF/F/ F2 A<cc2 | dfeg f2f2 ::\
fgaf gedc | defd cAGF |\
fgaf gedc | dfeg f2f>g |
af ge fd ec | defd cAGF |\
FF/F/ F2 A<cc2 |\
dfeg f2f2 ::\
AF cF dF cF | AF cF B/A/G/F/ EG |\
AF cF dF cF | efeg f2f2 :|
% - - - - - - - - - - - - - - - - - - - - - - - - -


